blog/src/icons/svg/nav-archived.svg

<?xml version="1.0" standalone="no"?><!DOCTYPE svg PUBLIC "-//W3C//DTD SVG 1.1//EN" "http://www.w3.org/Graphics/SVG/1.1/DTD/svg11.dtd"><svg t="1586004368928" class="icon" viewBox="0 0 1082 1024" version="1.1" xmlns="http://www.w3.org/2000/svg" p-id="894" xmlns:xlink="http://www.w3.org/1999/xlink" width="211.328125" height="200"><defs><style type="text/css"></style></defs><path d="M877.714286 1024H204.8A204.8 204.8 0 0 1 0 819.2V424.228571a29.257143 29.257143 0 0 1 29.257143-29.257142h1024a29.257143 29.257143 0 0 1 29.257143 29.257142v394.971429a204.8 204.8 0 0 1-204.8 204.8zM58.514286 453.485714v365.714286a146.285714 146.285714 0 0 0 146.285714 146.285714h672.914286a146.285714 146.285714 0 0 0 146.285714-146.285714V453.485714z" fill="" p-id="895"></path><path d="M321.828571 453.485714H146.285714a29.257143 29.257143 0 0 1-29.257143-29.257143V29.257143a29.257143 29.257143 0 0 1 29.257143-29.257143h175.542857a29.257143 29.257143 0 0 1 29.257143 29.257143v394.971428a29.257143 29.257143 0 0 1-29.257143 29.257143z m-146.285714-58.514285h117.028572V58.514286h-117.028572zM950.857143 453.485714H775.314286a29.257143 29.257143 0 0 1-29.257143-29.257143V29.257143a29.257143 29.257143 0 0 1 29.257143-29.257143h175.542857a29.257143 29.257143 0 0 1 29.257143 29.257143v394.971428a29.257143 29.257143 0 0 1-29.257143 29.257143z m-146.285714-58.514285h117.028571V58.514286h-117.028571zM471.04 438.857143a29.257143 29.257143 0 0 1-28.233143-21.650286L356.790857 96.256a29.257143 29.257143 0 0 1 20.626286-35.84L547.108571 14.628571a29.257143 29.257143 0 0 1 35.693715 20.626286l94.354285 351.085714a29.257143 29.257143 0 0 1-56.612571 14.628572l-86.601143-321.828572-113.078857 30.281143 78.409143 292.571429a29.257143 29.257143 0 0 1-20.626286 35.84 27.940571 27.940571 0 0 1-7.606857 1.024z" fill="" p-id="896"></path></svg>

<svg class="icon" viewBox="0 0 1082 1024" xmlns="http://www.w3.org/2000/svg" width="211.328" height="200"><defs><style/></defs><path d="M877.714 1024H204.8A204.8 204.8 0 0 1 0 819.2V424.229a29.257 29.257 0 0 1 29.257-29.258h1024a29.257 29.257 0 0 1 29.257 29.258V819.2a204.8 204.8 0 0 1-204.8 204.8zm-819.2-570.514V819.2A146.286 146.286 0 0 0 204.8 965.486h672.914A146.286 146.286 0 0 0 1024 819.2V453.486z"/><path d="M321.829 453.486H146.286a29.257 29.257 0 0 1-29.257-29.257V29.257A29.257 29.257 0 0 1 146.286 0h175.543a29.257 29.257 0 0 1 29.257 29.257V424.23a29.257 29.257 0 0 1-29.257 29.257zM175.543 394.97H292.57V58.514H175.543zm775.314 58.515H775.314a29.257 29.257 0 0 1-29.257-29.257V29.257A29.257 29.257 0 0 1 775.314 0h175.543a29.257 29.257 0 0 1 29.257 29.257V424.23a29.257 29.257 0 0 1-29.257 29.257zM804.571 394.97H921.6V58.514H804.571zM471.04 438.857a29.257 29.257 0 0 1-28.233-21.65L356.79 96.256a29.257 29.257 0 0 1 20.626-35.84L547.11 14.629a29.257 29.257 0 0 1 35.693 20.626l94.355 351.086a29.257 29.257 0 0 1-56.613 14.628L533.943 79.141l-113.079 30.28 78.41 292.572a29.257 29.257 0 0 1-20.627 35.84 27.94 27.94 0 0 1-7.607 1.024z"/></svg>
